X:796
T:Dunse Dings A'
S:Deaf Shepheard
D:Even In the Rain, Deaf Shepheard
Z:Nigel Gatherer
M:4/4
L:1/8
K:Ador
d | ceeg aecA | ceeg a3 e | ceeg aecA | BGGB g3 :|
d | cAeA fAeA | eAAg a3 e | cAeA fAeA | BGGB g3 :|
